X: 1
T: Up and Down Again
S: O'Neill's
M: 9/8
L: 1/8
K: G
|: GAB ~E3 ~E3 | GAB ~E3 AFD | GAB ~E3 ~E3 | FED AdB AFD :||
|: GAB BdB BdB | ~G3 BdB AFD | GAB BdB ~B3 | cBA AdB AFD :||
